X:1
T:Twenty-one Years
M:3/4
L:1/4
K:F
 F| F A c| f3| c2 c| e d c| G2 G| G A B| e3| d2 c| d c B| A2 A| F A c|\
 a3| f2 f| f g f| G2 G| G A B| e3| d2 c/2c/2| B A G| F2||

